X:1     
T:Villikins and his Dinah     
S:Harding B 26(663) from Bodleian Ballad site
B:Seeds of Love, Stephen Sedley, EFDSS, 1967 + Bodleian Ballad
F: http://www.folkinfo.org/songs
M:3/4     
L:1/8     %
K:C
C2 |C2 E2 G2 |G2 F2 E2 |D2 C2 C2 |
w:Its_ of a rich mer-chant ^in Lon-don did 
C4 C2 |C2 E2 G2 |c2 c2 c2 |BB G2 G2 |
w:dwell. Who had for one daugh-ter, an un-com-mon-fine 
G4 G2 |c2 c2 c2 |B2 G2 E2 |F2 G2 A2 |
w:gel. Her name it was Di-nah, scarce six-teen years 
G4 CD |E2 E2 E2 |G2 F2 E2 |D2 C2 C2 |
w:old, With a ve-ry large for-tune in sil-ver and 
"chorus:"C4 CD |E2 E2 E2 |G2 F2 E2 |D2 C2 B,2 |
w:gold. Sing-ing tu ra lol la rol lal tu rol lal 
C4 |]
w:lay.

